X: 2
T:Groupa Waltz#2
S:Trevor Keates <tanda.keates:tesco.net> tradtunes 2001-10-16
M:3/4
L:1/8
K:Bm
B fg|f3 B fg|e4 EA|c4BA|F3  f fg|f3 B fg|
e4 ed|cd ef ed|B3  :|
dF Fd Fd|cE Ec Ec|BG GB AG|F2  E2  DE|
dF Fd Fd|cE Ec Ec|BA Bd cA|B2 B4  :|
